app/dist/common/images/anglo-asian-mining-plc.svg

<svg height="18" viewBox="0 0 18 18" width="18" xmlns="http://www.w3.org/2000/svg"><path d="m0 0h18v18h-18z" fill="#f0f3fa"/><path d="m16 9h-14v2h14z" fill="#f5ab3b"/><path d="m2 9h7l-3.5-2zm7 0h7l-3.5-2z" fill="#950d34"/><path d="m9 5-3.5 2 3.5 2 3.5-2z" fill="#f5ab3b"/><path d="m6 9.67h-3.7v.66h3.7zm3.3 0h-2.93v.66h2.91v-.66zm.28 0h3.8v.66h-3.8zm6.13 0h-2.04v.66h2.04z" opacity=".7"/></svg>

<!-- by TradingView --><svg width="18" height="18" viewBox="0 0 18 18" xmlns="http://www.w3.org/2000/svg"><path fill="#F0F3FA" d="M0 0h18v18H0z"/><path d="M16 9H2v2h14V9Z" fill="#F5AB3B"/><path d="M2 9h7L5.5 7 2 9ZM9 9h7l-3.5-2L9 9Z" fill="#950D34"/><path d="M9 5 5.5 7 9 9l3.5-2L9 5Z" fill="#F5AB3B"/><path opacity=".7" d="M6 9.67H2.3v.66H6v-.66Zm3.3 0H6.37v.66h2.91v-.66Zm.28 0h3.8v.66h-3.8v-.66Zm6.13 0h-2.04v.66h2.04v-.66Z"/></svg>
